X: 11439
T: Easy Club, The
R: reel
M: 4/4
K: Amajor
AEAc BEGB|cEAc eAce|faag gaea|ceec dBGB|
AEAc BEGB|cEAc eAce|faga efec|1 dBGBA2 AB:|2 dBGB A2ce||
faad daga|eaac caga|faad daga|ceeB BdcB|
(3AAA cA BcdB|cdec defg|agae (3fgaec|dBGB A2 z2:|

